assets/icons/book.svg

<?xml version="1.0" encoding="UTF-8" standalone="no"?>
<svg viewBox="0 0 24 24" height="24" width="24" version="1.1" id="svg4" sodipodi:docname="book.svg" inkscape:version="1.1.2 (08b2f3d93c, 2022-04-05)"
   xmlns:inkscape="http://www.inkscape.org/namespaces/inkscape"
   xmlns:sodipodi="http://sodipodi.sourceforge.net/DTD/sodipodi-0.dtd"
   xmlns="http://www.w3.org/2000/svg"
   xmlns:svg="http://www.w3.org/2000/svg">
   <defs id="defs8" />
   <sodipodi:namedview id="namedview6" pagecolor="#ffffff" bordercolor="#666666" borderopacity="1.0" inkscape:pageshadow="2" inkscape:pageopacity="0.0" inkscape:pagecheckerboard="0" showgrid="true" width="24px" inkscape:zoom="4.9497475" inkscape:cx="67.377174" inkscape:cy="-6.0609152" inkscape:window-width="1920" inkscape:window-height="1043" inkscape:window-x="1920" inkscape:window-y="0" inkscape:window-maximized="1" inkscape:current-layer="svg4">
      <inkscape:grid type="xygrid" id="grid821" />
      <inkscape:grid type="xygrid" id="grid823" dotted="true" spacingx="0.5" spacingy="0.5" empspacing="10" />
   </sodipodi:namedview>
   <path id="path858" style="color:#000000;fill:#808080;-inkscape-stroke:none;fill-opacity:1" d="M 4.7871094 3 C 4.1101636 3.0055872 3.5365073 3.0481526 3.0273438 3.3027344 C 2.6879012 3.4724556 2.3973384 3.765168 2.2304688 4.140625 C 2.0635986 4.516082 2 4.9583339 2 5.5 L 2 16.5 C 2 17.041666 2.0635989 17.483918 2.2304688 17.859375 C 2.3973384 18.234832 2.6879012 18.527544 3.0273438 18.697266 C 3.7062281 19.036708 4.500001 19 5.5 19 L 9.5 19 C 10.666666 19 11.583984 20.277344 11.583984 20.277344 L 12 20.902344 L 12.416016 20.277344 C 12.416016 20.277344 13.333334 19 14.5 19 L 18.5 19 C 19.499999 19 20.293772 19.036708 20.972656 18.697266 C 21.312099 18.527544 21.602662 18.234832 21.769531 17.859375 C 21.9364 17.483918 22 17.041666 22 16.5 L 22 5.5 C 22 4.9583339 21.936401 4.516082 21.769531 4.140625 C 21.602662 3.765168 21.312099 3.4724556 20.972656 3.3027344 C 20.463493 3.048153 19.889836 3.00559 19.212891 3 C 18.987242 2.99814 18.75 3 18.5 3 L 14.5 3 C 13.161754 3 12.409168 3.7620705 12 4.2578125 C 11.590832 3.7620705 10.838246 3 9.5 3 L 5.5 3 C 5.2500003 3 5.012758 2.9981376 4.7871094 3 z M 5.5 4 L 9.5 4 C 10.666666 4 11.583984 5.2773437 11.583984 5.2773438 L 12 5.9023438 L 12.416016 5.2773438 C 12.416016 5.2773436 13.333334 4 14.5 4 L 18.5 4 C 19.499999 4 20.206229 4.0367085 20.527344 4.1972656 C 20.687901 4.2775442 20.772339 4.3598326 20.855469 4.546875 C 20.9386 4.7339174 21 5.0416671 21 5.5 L 21 16.5 C 21 16.958333 20.938599 17.266083 20.855469 17.453125 C 20.772339 17.640167 20.687901 17.722454 20.527344 17.802734 C 20.20623 17.96329 19.499999 18 18.5 18 L 14.5 18 C 13.161754 18 12.409168 18.762072 12 19.257812 C 11.590832 18.762072 10.838246 18 9.5 18 L 5.5 18 C 4.500001 18 3.7937704 17.96329 3.4726562 17.802734 C 3.3120993 17.722454 3.2276613 17.640167 3.1445312 17.453125 C 3.0614014 17.266083 3 16.958333 3 16.5 L 3 5.5 C 3 5.0416671 3.0614011 4.7339174 3.1445312 4.546875 C 3.2276613 4.3598326 3.3120991 4.2775442 3.4726562 4.1972656 C 3.7937707 4.0367085 4.500001 4 5.5 4 z M 6 7 L 6 8 L 9 8 L 9 7 L 6 7 z M 15 7 L 15 8 L 18 8 L 18 7 L 15 7 z M 6 9 L 6 10 L 9 10 L 9 9 L 6 9 z M 15 9 L 15 10 L 18 10 L 18 9 L 15 9 z M 6 11 L 6 12 L 9 12 L 9 11 L 6 11 z M 15 11 L 15 12 L 18 12 L 18 11 L 15 11 z M 6 13 L 6 14 L 9 14 L 9 13 L 6 13 z M 15 13 L 15 14 L 18 14 L 18 13 L 15 13 z " />
</svg>

<svg height="24" width="24" xmlns="http://www.w3.org/2000/svg"><path style="color:#000;fill:gray;-inkscape-stroke:none;fill-opacity:1" d="M4.787 3c-.677.006-1.25.048-1.76.303-.34.17-.63.462-.797.838C2.064 4.516 2 4.958 2 5.5v11c0 .542.064.984.23 1.36.167.375.458.668.797.837.68.34 1.473.303 2.473.303h4c1.167 0 2.084 1.277 2.084 1.277l.416.625.416-.625S13.333 19 14.5 19h4c1 0 1.794.037 2.473-.303.34-.17.63-.462.797-.838.166-.375.23-.817.23-1.359v-11c0-.542-.064-.984-.23-1.36a1.72 1.72 0 0 0-.797-.837c-.51-.255-1.083-.297-1.76-.303-.226-.002-.463 0-.713 0h-4c-1.338 0-2.09.762-2.5 1.258C11.59 3.762 10.838 3 9.5 3h-4c-.25 0-.487-.002-.713 0zM5.5 4h4c1.167 0 2.084 1.277 2.084 1.277l.416.625.416-.625S13.333 4 14.5 4h4c1 0 1.706.037 2.027.197.16.08.245.163.328.35.084.187.145.495.145.953v11c0 .458-.061.766-.145.953a.615.615 0 0 1-.328.35c-.32.16-1.027.197-2.027.197h-4c-1.338 0-2.09.762-2.5 1.258C11.59 18.762 10.838 18 9.5 18h-4c-1 0-1.706-.037-2.027-.197a.615.615 0 0 1-.328-.35C3.06 17.266 3 16.958 3 16.5v-11c0-.458.061-.766.145-.953a.615.615 0 0 1 .328-.35C3.793 4.037 4.5 4 5.5 4zM6 7v1h3V7H6zm9 0v1h3V7h-3zM6 9v1h3V9H6zm9 0v1h3V9h-3zm-9 2v1h3v-1H6zm9 0v1h3v-1h-3zm-9 2v1h3v-1H6zm9 0v1h3v-1h-3z"/></svg>
